X:1
T:Lone Pilgrim
B:George Pullen Jackson, ed. Spiritual Folk-Songs of Early North America (New York: Dover Publications, Inc., 1937)
F:/songs
M:4/4
L:1/4
K:Eb
(E G) | B2 B G | B2 B (c/d/) | (e2{c}) B G| (F/HE3/)
w:I* came to the place where the* lone pil-grim lay,
(E G) | B2 B B | g2 f e | Hf2
w:And* pen-sive-ly stood by the tomb,
(g f) | e2 c e | B2 B (c/d/) | (e2{c}) B G| (F/ HE3/)
w:When* in a low whis-per I* heard some-thing say,*
(E G) | B2 B G | (B3/ c/) e e | e4 |
w:"How* sweet-ly I sleep* here a-lone."
